svgs/sharp-light/align-slash.svg

<svg xmlns="http://www.w3.org/2000/svg" viewBox="0 0 640 512"><!--! Font Awesome Pro 6.6.0 by @fontawesome - https://fontawesome.com License - https://fontawesome.com/license (Commercial License) Copyright 2024 Fonticons, Inc. --><path d="M32.5 10L19.9 .1 .1 25.3l12.6 9.9L607.8 502.2l12.6 9.9 19.8-25.2-12.6-9.9L32.5 10zM528 336l16 0 0-32-16 0-43.9 0 40.5 32 3.4 0zm0-128l16 0 0-32-16 0-206 0 40.5 32L528 208zm-372.1 0l-40.5-32-3.4 0-16 0 0 32 16 0 43.9 0zM528 48L159.8 48l40.5 32L528 80l16 0 0-32-16 0zm-210 288l-40.5-32L112 304l-16 0 0 32 16 0 206 0zm121.6 96L112 432l-16 0 0 32 16 0 368.2 0-40.5-32z"/></svg>

<svg xmlns="http://www.w3.org/2000/svg" viewBox="0 0 640 512"><!--! Font Awesome Pro 6.4.0 by @fontawesome - https://fontawesome.com License - https://fontawesome.com/license (Commercial License) Copyright 2023 Fonticons, Inc. --><path d="M40.4 18L27.8 8.1 8.1 33.4l12.6 9.8L599.8 494.3l12.6 9.8 19.7-25.2L619.5 469 40.4 18zM528 336h16V304H528 484.1l40.5 32H528zm0-128h16V176H528 322l40.5 32H528zm-372.1 0l-40.5-32H112 96v32h16 43.9zM528 48H159.8l40.5 32H528h16V48H528zM318 336l-40.5-32H112 96v32h16H318zm121.6 96H112 96v32h16H480.2l-40.5-32z"/></svg>
